packages/tokens/icons/link/size24Px.svg

<svg viewBox="0 0 24 24" fill="none" xmlns="http://www.w3.org/2000/svg" width="1em" height="1em"><path d="M7.21907 11.1808L4.70402 13.6959C3.15535 15.2446 3.15535 17.7554 4.70402 19.3041V19.3041C6.25269 20.8528 8.76359 20.8528 10.3123 19.3041L12.8273 16.7891" stroke="currentColor" stroke-linecap="round" stroke-linejoin="round"/><path d="M11 7.39986L13.7435 4.65644C15.2921 3.10777 17.803 3.10777 19.3517 4.65644V4.65644C20.9004 6.20511 20.9004 8.71601 19.3517 10.2647L16.6083 13.0081" stroke="currentColor" stroke-linecap="round" stroke-linejoin="round"/><path d="M15.4999 8.5L8.5 15.4999" stroke="currentColor" stroke-linecap="round" stroke-linejoin="round"/></svg>

<svg xmlns="http://www.w3.org/2000/svg" fill="none" viewBox="0 0 24 24" width="1em" height="1em"><path stroke="currentColor" stroke-linecap="round" stroke-linejoin="round" d="m7.22 11.18-2.516 2.516a3.966 3.966 0 0 0 0 5.608v0a3.966 3.966 0 0 0 5.608 0l2.515-2.515M11 7.4l2.743-2.744a3.966 3.966 0 0 1 5.609 0v0a3.966 3.966 0 0 1 0 5.609l-2.744 2.743M15.5 8.5l-7 7"/></svg>
